src/assets/duotone/Heart.svg

<svg width="24" height="24" viewBox="0 0 24 24"  xmlns="http://www.w3.org/2000/svg">
<path d="M22 8.68961C22 9.87961 21.81 10.9796 21.48 11.9996H2.52C2.19 10.9796 2 9.87961 2 8.68961C2 5.59961 4.49 3.09961 7.56 3.09961C9.37 3.09961 10.99 3.97961 12 5.32961C13.01 3.97961 14.63 3.09961 16.44 3.09961C19.51 3.09961 22 5.59961 22 8.68961Z" />
<path opacity="0.4" d="M21.48 12C19.9 17 15.03 19.99 12.62 20.81C12.28 20.93 11.72 20.93 11.38 20.81C8.97002 19.99 4.10002 17 2.52002 12H21.48Z" />
</svg>

<?xml version="1.0" encoding="UTF-8"?>
<svg width="24" height="24" viewBox="0 0 24 24" xmlns="http://www.w3.org/2000/svg">
 <path d="m22 8.6896c0 1.19-0.19 2.29-0.52 3.31h-18.96c-0.33-1.02-0.52-2.12-0.52-3.31 0-3.09 2.49-5.59 5.56-5.59 1.81 0 3.43 0.88 4.44 2.23 1.01-1.35 2.63-2.23 4.44-2.23 3.07 0 5.56 2.5 5.56 5.59z"/>
 <path d="m21.48 12c-1.58 5-6.45 7.99-8.86 8.81-0.34 0.12-0.9 0.12-1.24 0-2.41-0.82-7.28-3.81-8.86-8.81h18.96z" opacity=".4"/>
</svg>
